packages/bezier-icons/icons/table.svg

<svg width="24" height="24" viewBox="0 0 24 24" fill="none" xmlns="http://www.w3.org/2000/svg">
<path fill-rule="evenodd" clip-rule="evenodd" d="M16 6H19C19.5523 6 20 6.44771 20 7V9H16V6ZM14 6H10V9H14V6ZM14 11H10V18H14V11ZM16 18H19C19.5523 18 20 17.5523 20 17V11H16V18ZM8 6V9H4V7C4 6.44772 4.44772 6 5 6H8ZM8 11H4V17C4 17.5523 4.44772 18 5 18H8V11ZM2 7C2 5.34315 3.34315 4 5 4H19C20.6569 4 22 5.34315 22 7V17C22 18.6569 20.6569 20 19 20H5C3.34315 20 2 18.6569 2 17V7Z" fill="#313234"/>
</svg>

<svg xmlns="http://www.w3.org/2000/svg" width="24" height="24" fill="none" viewBox="0 0 24 24"><path fill="#313234" fill-rule="evenodd" d="M16 6h3a1 1 0 0 1 1 1v2h-4zm-2 0h-4v3h4zm0 5h-4v7h4zm2 7h3a1 1 0 0 0 1-1v-6h-4zM8 6v3H4V7a1 1 0 0 1 1-1zm0 5H4v6a1 1 0 0 0 1 1h3zM2 7a3 3 0 0 1 3-3h14a3 3 0 0 1 3 3v10a3 3 0 0 1-3 3H5a3 3 0 0 1-3-3z" clip-rule="evenodd"/></svg>
